Newaita-dark/actions/32/remove-link.svg

<svg height="32" viewBox="0 0 32 32" width="32" xmlns="http://www.w3.org/2000/svg"><g fill="#e0e0e0"><path d="m10.585938 2.894531c-4.398438 0-7.941407 3.542969-7.941407 7.941407 0 4.394531 3.542969 7.9375 7.941407 7.9375h1.984374c.363282 0 .660157-.296876.660157-.664063v-1.320313c0-.367187-.296875-.664062-.660157-.664062h-1.984374c-2.933594 0-5.292969-2.359375-5.292969-5.289062 0-2.933594 2.359375-5.292969 5.292969-5.292969h1.984374c.363282 0 .660157-.296875.660157-.664063v-1.320312c0-.367188-.296875-.664063-.660157-.664063zm8.597656 0c-.367188 0-.660156.296875-.660156.664063v1.320312c0 .367188.292968.664063.660156.664063h1.984375c2.933593 0 5.292969 2.359375 5.292969 5.292969 0 2.929687-2.359376 5.289062-5.292969 5.289062h-1.984375c-.367188 0-.660156.296875-.660156.664062v1.320313c0 .367187.292968.664063.660156.664063h1.984375c4.398437 0 7.9375-3.542969 7.9375-7.9375 0-4.398438-3.539063-7.941407-7.9375-7.941407zm0 0"/><path d="m11.246094 9.511719h9.261718c.363282 0 .660157.296875.660157.660156v1.324219c0 .363281-.296875.660156-.660157.660156h-9.261718c-.367188 0-.660156-.296875-.660156-.660156v-1.324219c0-.363281.292968-.660156.660156-.660156zm0 0"/><path d="m19.15625 20.730469.933594.933593c.261718.257813.261718.675782 0 .9375l-6.546875 6.546876c-.257813.257812-.675781.257812-.9375 0l-.933594-.933594c-.257813-.261719-.257813-.679688 0-.9375l6.546875-6.546875c.261719-.261719.679688-.261719.9375 0zm0 0"/><path d="m20.089844 28.214844-.933594.933594c-.257812.257812-.675781.257812-.9375 0l-6.546875-6.546876c-.257813-.261718-.257813-.679687 0-.9375l.933594-.933593c.261719-.261719.679687-.261719.9375 0l6.546875 6.546875c.261718.257812.261718.675781 0 .9375zm0 0"/></g></svg>

<svg xmlns="http://www.w3.org/2000/svg" xmlns:xlink="http://www.w3.org/1999/xlink" width="32px" height="32px" viewBox="0 0 32 32" version="1.1">
<g id="surface1">
     <defs>
  <style id="current-color-scheme" type="text/css">
   .ColorScheme-Text { color:#eeeeee; } .ColorScheme-Highlight { color:#424242; }
  </style>
 </defs>
<path style="fill:currentColor" class="ColorScheme-Text" d="M 10.585938 2.894531 C 6.1875 2.894531 2.644531 6.4375 2.644531 10.835938 C 2.644531 15.230469 6.1875 18.773438 10.585938 18.773438 L 12.570312 18.773438 C 12.933594 18.773438 13.230469 18.476562 13.230469 18.109375 L 13.230469 16.789062 C 13.230469 16.421875 12.933594 16.125 12.570312 16.125 L 10.585938 16.125 C 7.652344 16.125 5.292969 13.765625 5.292969 10.835938 C 5.292969 7.902344 7.652344 5.542969 10.585938 5.542969 L 12.570312 5.542969 C 12.933594 5.542969 13.230469 5.246094 13.230469 4.878906 L 13.230469 3.558594 C 13.230469 3.191406 12.933594 2.894531 12.570312 2.894531 Z M 19.183594 2.894531 C 18.816406 2.894531 18.523438 3.191406 18.523438 3.558594 L 18.523438 4.878906 C 18.523438 5.246094 18.816406 5.542969 19.183594 5.542969 L 21.167969 5.542969 C 24.101562 5.542969 26.460938 7.902344 26.460938 10.835938 C 26.460938 13.765625 24.101562 16.125 21.167969 16.125 L 19.183594 16.125 C 18.816406 16.125 18.523438 16.421875 18.523438 16.789062 L 18.523438 18.109375 C 18.523438 18.476562 18.816406 18.773438 19.183594 18.773438 L 21.167969 18.773438 C 25.566406 18.773438 29.105469 15.230469 29.105469 10.835938 C 29.105469 6.4375 25.566406 2.894531 21.167969 2.894531 Z M 19.183594 2.894531 "/>
     <defs>
  <style id="current-color-scheme" type="text/css">
   .ColorScheme-Text { color:#eeeeee; } .ColorScheme-Highlight { color:#424242; }
  </style>
 </defs>
<path style="fill:currentColor" class="ColorScheme-Text" d="M 11.246094 9.511719 L 20.507812 9.511719 C 20.871094 9.511719 21.167969 9.808594 21.167969 10.171875 L 21.167969 11.496094 C 21.167969 11.859375 20.871094 12.15625 20.507812 12.15625 L 11.246094 12.15625 C 10.878906 12.15625 10.585938 11.859375 10.585938 11.496094 L 10.585938 10.171875 C 10.585938 9.808594 10.878906 9.511719 11.246094 9.511719 Z M 11.246094 9.511719 "/>
     <defs>
  <style id="current-color-scheme" type="text/css">
   .ColorScheme-Text { color:#eeeeee; } .ColorScheme-Highlight { color:#424242; }
  </style>
 </defs>
<path style="fill:currentColor" class="ColorScheme-Text" d="M 19.15625 20.730469 L 20.089844 21.664062 C 20.351562 21.921875 20.351562 22.339844 20.089844 22.601562 L 13.542969 29.148438 C 13.285156 29.40625 12.867188 29.40625 12.605469 29.148438 L 11.671875 28.214844 C 11.414062 27.953125 11.414062 27.535156 11.671875 27.277344 L 18.21875 20.730469 C 18.480469 20.46875 18.898438 20.46875 19.15625 20.730469 Z M 19.15625 20.730469 "/>
     <defs>
  <style id="current-color-scheme" type="text/css">
   .ColorScheme-Text { color:#eeeeee; } .ColorScheme-Highlight { color:#424242; }
  </style>
 </defs>
<path style="fill:currentColor" class="ColorScheme-Text" d="M 20.089844 28.214844 L 19.15625 29.148438 C 18.898438 29.40625 18.480469 29.40625 18.21875 29.148438 L 11.671875 22.601562 C 11.414062 22.339844 11.414062 21.921875 11.671875 21.664062 L 12.605469 20.730469 C 12.867188 20.46875 13.285156 20.46875 13.542969 20.730469 L 20.089844 27.277344 C 20.351562 27.535156 20.351562 27.953125 20.089844 28.214844 Z M 20.089844 28.214844 "/>
</g>
</svg>
